src/img/header/vk.svg

<svg width="36" height="36" viewBox="0 0 36 36" fill="none" xmlns="http://www.w3.org/2000/svg">
<rect width="36" height="36" rx="18" fill="#2C4867"/>
<path d="M16.5316 20.441V13.46H18.2004V17.2302V17.7896L18.7562 17.7271C19.7397 17.6165 20.6809 16.991 21.4312 16.1651C22.1074 15.4208 22.6685 14.4716 23.0024 13.46H24.6808C24.1121 15.6281 22.5407 17.2327 21.4102 17.9158L20.626 18.3896L21.4488 18.7927C22.5817 19.3477 24.3803 20.7549 25.2462 23.26H23.3417C22.5986 21.2289 20.9512 19.6319 18.7521 19.4032L18.2004 19.3458V19.9005V23.2585C15.5891 23.2168 13.5771 22.2608 12.1844 20.5716C10.8229 18.9203 10.0131 16.5187 9.87642 13.46H11.7103C11.9312 18.1969 14.0134 20.4305 15.9052 20.9248L16.5316 21.0885V20.441Z" fill="white" stroke="white"/>
</svg>

<svg width="36" height="36" fill="none" xmlns="http://www.w3.org/2000/svg"><rect width="36" height="36" rx="18" fill="#2C4867"/><path d="M16.532 20.441V13.46H18.2v4.33l.556-.063c.984-.11 1.925-.736 2.675-1.562a7.661 7.661 0 0 0 1.571-2.705h1.679c-.569 2.168-2.14 3.773-3.27 4.456l-.785.474.823.403c1.133.555 2.931 1.962 3.797 4.467h-1.904c-.743-2.031-2.39-3.628-4.59-3.857l-.552-.057V23.259c-2.61-.042-4.623-.998-6.016-2.687-1.361-1.652-2.17-4.053-2.308-7.112h1.834c.221 4.737 2.303 6.97 4.195 7.465l.627.163v-.647Z" fill="#fff" stroke="#fff"/></svg>
